Catalina-dark/actions/22/lensdistortion.svg

<svg xmlns="http://www.w3.org/2000/svg" viewBox="0 0 22 22">
  <defs id="defs3051">
    <style type="text/css" id="current-color-scheme">
      .ColorScheme-Text {
        color:#f2f2f2
      }
      </style>
  </defs>
 <path 
     style="fill:currentColor;fill-opacity:1;stroke:none"      
	 class="ColorScheme-Text"
        d="M 3 3 L 3 6.8886719 L 3 8.0097656 L 3 11 L 3 13.990234 L 3 15 L 3 15.111328 L 3 19 L 19 19 L 19 15.107422 L 19 15 L 19 13.990234 L 19 11 L 19 8.0097656 L 19 6.8925781 L 19 3 L 3 3 z M 4 4 L 18 4 L 18 6.3867188 A 11 6 0 0 0 11 5 A 11 6 0 0 0 4 6.3808594 L 4 4 z M 11 6 A 10 5 0 0 1 18 7.4414062 L 18 9.5488281 A 8 3 0 0 0 11 8 A 8 3 0 0 0 4 9.5546875 L 4 7.4453125 A 10 5 0 0 1 11 6 z M 11 9 A 7 2 0 0 1 18 11 A 7 2 0 0 1 11 13 A 7 2 0 0 1 4 11 A 7 2 0 0 1 11 9 z M 18 12.445312 L 18 14.558594 A 10 5 0 0 1 11 16 A 10 5 0 0 1 4 14.554688 L 4 12.451172 A 8 3 0 0 0 11 14 A 8 3 0 0 0 18 12.445312 z M 18 15.613281 L 18 18 L 4 18 L 4 15.619141 A 11 6 0 0 0 11 17 A 11 6 0 0 0 18 15.613281 z "
     />
</svg>

<svg width="22" height="22" viewBox="3 3 16 16" xmlns="http://www.w3.org/2000/svg">
<defs>
<style id="current-color-scheme" type="text/css">.ColorScheme-Text {
        color:#f2f2f2
      }</style>
</defs>
<path class="ColorScheme-Text" d="m3 3v3.8887 1.1211 2.9902 2.9902 1.0098 0.11133 3.8887h16v-3.8926-0.10742-1.0098-2.9902-2.9902-1.1172-3.8926h-16zm1 1h14v2.3867a11 6 0 0 0-7-1.3867 11 6 0 0 0-7 1.3809v-2.3809zm7 2a10 5 0 0 1 7 1.4414v2.1074a8 3 0 0 0-7-1.5488 8 3 0 0 0-7 1.5547v-2.1094a10 5 0 0 1 7-1.4453zm0 3a7 2 0 0 1 7 2 7 2 0 0 1-7 2 7 2 0 0 1-7-2 7 2 0 0 1 7-2zm7 3.4453v2.1133a10 5 0 0 1-7 1.4414 10 5 0 0 1-7-1.4453v-2.1035a8 3 0 0 0 7 1.5488 8 3 0 0 0 7-1.5547zm0 3.168v2.3867h-14v-2.3809a11 6 0 0 0 7 1.3809 11 6 0 0 0 7-1.3867z" fill="currentColor"/>
</svg>
